contributed-vectors/adidas_training.svg

<svg xmlns="http://www.w3.org/2000/svg" xml:space="preserve" style="fill-rule:evenodd;clip-rule:evenodd;stroke-linejoin:round;stroke-miterlimit:2" viewBox="0 0 192 192"><path d="M172.5 889.862c0-5.519-4.481-10-10-10h-133c-5.519 0-10 4.481-10 10v132.998c0 5.52 4.481 10 10 10h133c5.519 0 10-4.48 10-10V889.862Z" style="fill:#fff" transform="translate(0 -860.362)"/><path d="m61.214 972.984 11.245-6.531a2.013 2.013 0 0 1 2.737.724l6.88 11.803H64.255a3.399 3.399 0 0 1-2.97-1.748l-.83-1.495a2.048 2.048 0 0 1 .759-2.753ZM114.257 978.977l-19.464-33.949a2.03 2.03 0 0 1 .73-2.747l11.255-6.61a1.985 1.985 0 0 1 2.725.72l23.575 40.853a1.157 1.157 0 0 1-1 1.733h-17.821ZM89.926 951.285l-11.437 6.467a1.997 1.997 0 0 0-.752 2.723l10.521 18.499v.005l19.82-.005-15.418-26.937a2.02 2.02 0 0 0-2.734-.752Z" style="fill:#73ada4;fill-rule:nonzero" transform="matrix(.99953 0 0 .99953 -.67 -869.305)"/><text x="41.654" y="133.736" style="font-family:&quot;Now-Bold&quot;,&quot;Now&quot;;font-weight:700;font-size:19.265px;fill:#73ada4" transform="translate(29.792 30.314) scale(.71525)">T</text><text x="52.481" y="133.736" style="font-family:&quot;Now-Bold&quot;,&quot;Now&quot;;font-weight:700;font-size:19.265px;fill:#73ada4" transform="translate(29.792 30.314) scale(.71525)">R</text><text x="67.425" y="133.736" style="font-family:&quot;Now-Bold&quot;,&quot;Now&quot;;font-weight:700;font-size:19.265px;fill:#73ada4" transform="translate(29.792 30.314) scale(.71525)">A<tspan x="81.672" y="133.736">I</tspan></text><text x="88.814" y="133.736" style="font-family:&quot;Now-Bold&quot;,&quot;Now&quot;;font-weight:700;font-size:19.265px;fill:#73ada4" transform="translate(29.792 30.314) scale(.71525)">NING</text></svg>

<?xml version="1.0" encoding="UTF-8" standalone="no"?>
<!DOCTYPE svg PUBLIC "-//W3C//DTD SVG 1.1//EN" "http://www.w3.org/Graphics/SVG/1.1/DTD/svg11.dtd">
<svg width="100%" height="100%" viewBox="0 0 192 192" version="1.1" xmlns="http://www.w3.org/2000/svg" xmlns:xlink="http://www.w3.org/1999/xlink" xml:space="preserve" xmlns:serif="http://www.serif.com/" style="fill-rule:evenodd;clip-rule:evenodd;stroke-linejoin:round;stroke-miterlimit:2;">
    <g id="Calque-1" serif:id="Calque 1" transform="matrix(1,0,0,1,0,-860.362)">
        <path id="rect842-3-3" d="M172.5,889.862C172.5,884.343 168.019,879.862 162.5,879.862L29.5,879.862C23.981,879.862 19.5,884.343 19.5,889.862L19.5,1022.86C19.5,1028.38 23.981,1032.86 29.5,1032.86L162.5,1032.86C168.019,1032.86 172.5,1028.38 172.5,1022.86L172.5,889.862Z" style="fill:white;"/>
        <g transform="matrix(1,0,0,1,0,-8.56175)">
            <g id="g1027" transform="matrix(0.999534,0,0,0.999534,-0.67072,-0.38098)">
                <path id="path881-6" d="M61.214,972.984L72.459,966.453C73.408,965.902 74.643,966.228 75.196,967.177L82.076,978.98L64.255,978.98C63.022,978.98 61.883,978.31 61.285,977.232L60.455,975.737C59.919,974.772 60.259,973.538 61.214,972.984Z" style="fill:rgb(115,173,164);fill-rule:nonzero;"/>
                <path id="path897-7" d="M114.257,978.977L94.793,945.028C94.246,944.074 94.574,942.838 95.523,942.281L106.778,935.671C107.234,935.403 107.779,935.329 108.29,935.464C108.802,935.599 109.238,935.933 109.503,936.391L133.078,977.244C133.284,977.601 133.284,978.042 133.078,978.399C132.872,978.756 132.49,978.977 132.078,978.977L114.257,978.977Z" style="fill:rgb(115,173,164);fill-rule:nonzero;"/>
                <path id="path909-5" d="M89.926,951.285L78.489,957.752C78.028,958.013 77.689,958.447 77.548,958.958C77.407,959.468 77.475,960.015 77.737,960.475L88.258,978.974L88.258,978.979L108.078,978.974L92.66,952.037C92.114,951.083 90.882,950.744 89.926,951.285Z" style="fill:rgb(115,173,164);fill-rule:nonzero;"/>
            </g>
            <g transform="matrix(0.715252,0,0,0.715252,29.7921,899.238)">
                <text x="41.654px" y="133.736px" style="font-family:'Now-Bold', 'Now';font-weight:700;font-size:19.265px;fill:rgb(115,173,164);">T</text>
                <text x="52.481px" y="133.736px" style="font-family:'Now-Bold', 'Now';font-weight:700;font-size:19.265px;fill:rgb(115,173,164);">R</text>
                <text x="67.425px" y="133.736px" style="font-family:'Now-Bold', 'Now';font-weight:700;font-size:19.265px;fill:rgb(115,173,164);">A<tspan x="81.672px " y="133.736px ">I</tspan></text>
                <text x="88.814px" y="133.736px" style="font-family:'Now-Bold', 'Now';font-weight:700;font-size:19.265px;fill:rgb(115,173,164);">NING</text>
            </g>
        </g>
    </g>
</svg>
